public/images/info.svg

<?xml version="1.0" encoding="UTF-8"?>
<svg width="30px" height="30px" viewBox="0 0 30 30" version="1.1" xmlns="http://www.w3.org/2000/svg" xmlns:xlink="http://www.w3.org/1999/xlink">
    <!-- Generator: Sketch 45.1 (43504) - http://www.bohemiancoding.com/sketch -->
    <title>noun_808465_cc</title>
    <desc>Created with Sketch.</desc>
    <defs></defs>
    <g id="Adonis---Branding" stroke="none" stroke-width="1" fill="none" fill-rule="evenodd">
        <g id="Adonis---Docs" transform="translate(-582.000000, -2389.000000)" fill-rule="nonzero" fill="#4800ad">
            <g id="noun_808465_cc" transform="translate(582.000000, 2389.000000)">
                <g id="Group">
                    <path d="M15,30 C6.71428571,30 0,23.2857143 0,15 C0,6.71428571 6.71428571,0 15,0 C23.2857143,0 30,6.71428571 30,15 C30,23.2857143 23.2857143,30 15,30 Z M15,1.42857143 C7.5,1.42857143 1.42857143,7.5 1.42857143,15 C1.42857143,22.5 7.5,28.5714286 15,28.5714286 C22.5,28.5714286 28.5714286,22.5 28.5714286,15 C28.5714286,7.5 22.5,1.42857143 15,1.42857143 Z" id="Shape"></path>
                    <g transform="translate(13.928571, 8.214286)">
                        <path d="M1.07142857,13.5714286 C0.678571429,13.5714286 0.357142857,13.25 0.357142857,12.8571429 L0.357142857,4.64285714 C0.357142857,4.25 0.678571429,3.92857143 1.07142857,3.92857143 C1.46428571,3.92857143 1.78571429,4.25 1.78571429,4.64285714 L1.78571429,12.8571429 C1.78571429,13.25 1.46428571,13.5714286 1.07142857,13.5714286 Z" id="Shape"></path>
                        <g>
                            <circle id="Oval" cx="1.07142857" cy="1.07142857" r="1"></circle>
                            <path d="M1.07142857,2.14285714 C0.464285714,2.14285714 0,1.67857143 0,1.07142857 C0,0.464285714 0.464285714,0 1.07142857,0 C1.67857143,0 2.14285714,0.464285714 2.14285714,1.07142857 C2.14285714,1.67857143 1.67857143,2.14285714 1.07142857,2.14285714 Z M1.07142857,0.714285714 C0.857142857,0.714285714 0.714285714,0.857142857 0.714285714,1.07142857 C0.714285714,1.28571429 0.857142857,1.42857143 1.07142857,1.42857143 C1.28571429,1.42857143 1.42857143,1.28571429 1.42857143,1.07142857 C1.42857143,0.857142857 1.28571429,0.714285714 1.07142857,0.714285714 Z" id="Shape"></path>
                        </g>
                    </g>
                </g>
            </g>
        </g>
    </g>
</svg>

<?xml version="1.0" encoding="UTF-8"?><svg width="30px" height="30px" viewBox="0 0 30 30" xmlns="http://www.w3.org/2000/svg" xmlns:xlink="http://www.w3.org/1999/xlink"><g fill-rule="nonzero" fill="#4800ad"><path d="M15 30C6.714 30 0 23.286 0 15S6.714 0 15 0s15 6.714 15 15-6.714 15-15 15zm0-28.57C7.5 1.43 1.43 7.5 1.43 15S7.5 28.57 15 28.57 28.57 22.5 28.57 15 22.5 1.43 15 1.43z"/><g transform="translate(13.93 8.214)"><path d="M1.07 13.57c-.39 0-.713-.32-.713-.713V4.643c0-.393.322-.714.714-.714.394 0 .716.32.716.713v8.214c0 .393-.322.714-.715.714z"/><circle cx="1.07142857" cy="1.07142857" r="1"/><path d="M1.07 2.143C.465 2.143 0 1.68 0 1.07 0 .465.464 0 1.07 0c.61 0 1.073.464 1.073 1.07 0 .61-.464 1.073-1.072 1.073zm0-1.43c-.213 0-.356.144-.356.358 0 .216.143.36.357.36.216 0 .36-.144.36-.36 0-.213-.144-.356-.36-.356z"/></g></g></svg>
